X:1
T:Matona, Mia Cara
T:Orlando Lasso
T: Libro de Villanelle, Moresche, et altre Canzoni. Paris, 1581 
C:Roland de Lassus
%%score 1 2 3 4
L:1/8
Q:1/4=240
M:4/4
K:Ab
V:1 treble nm="Soprano" snm="S."
V:2 treble nm="Alto" snm="A."
V:3 treble-8 nm="Ténor" snm="T."
V:4 bass nm="Basse" snm="B."
V:1
|: A4 A2 A2 | B4 A4 | G4 G4 | A4 d2 c2 | B2 A4 G2 |1 A8 :|2 A4 z2 c2 || d2 d2 c2 B2 | =A4 A4 | %9
w: Ma to na,~|mi a~|ca ra,~|mi~ fol le|re~ * can|zon,~|zon,~ can|tar~ sot to~ fi|ne stra,~|
 B4 c4 | =d2 e4 d2 | e4 c2 c2 |: c4 BABA | F2 A4 G2 |1 A4 c2 c2 :|2 A4 z2 G2 |: G2 G2 A2 G2 | %17
w: Lan tze~|buon~ com pa|gnon,~ Don,~ don,~|don,~ di ri,~ di ri,~|don,~ don,~ don,~|don,~ Don,~ don,~|don,~ Ti~|pre go~ m'as col|
 F4 G4 | z2 A2 B2 B2 | A6 A2 |1 A4 z2 G2 :|2 A4 z2 A2 || B2 B2 c2 c2 | B6 B2 | c4 A2 G2 | B4 B4 | %26
w: ta re,~|che~ mi~ can|tar~ de~|bon,~ Ti~|bon,~ E~|mi~ ti~ fol ler~|be ne~|co me~ gre|co\_e~ ca|
 B4 c2 c2 |: c4 BABA | F2 A4 G2 |1 A4 c2 c2 :|2 A4 z2 A2 |: A2 B2 c2 d2 | c4 c2 c2 | d4 z2 c2 | %34
w: pon.~ Don,~ don,~|don,~ di ri,~ di ri,~|don,~ don,~ don,~|don,~ Don,~ don,~|don,~ Co|m'an dar~ a~ le~|caz ze,~ caz|zar,~ caz|
 d4 c4 | A4 B4 |1 c4 z2 A2 :|2 c4 z2 e2 || A2 B2 c2 A2 | B4 A4 | c4 c2 c2 | e4 =d4 | e4 c2 c2 |: %43
w: zar~ con~|le~ fal|con,~ Co|con,~ Mi~|ti~ por~ tar~ bec|caz ze~|gras se~ co|me ro|gnon,~ Don,~ don,~|
 c4 BABA | F2 A4 G2 |1 A4 c2 c2 :|2 A4 z2 G2 |: A2 A2 B2 B2 | c4 c4 | f4 e2 d2 | c2 B4 =A2 |1 %51
w: don,~ di ri,~ di ri,~|don,~ don,~ don,~|don,~ Don,~ don,~|don,~ Se~|mi~ non~ sa per~|di re~|tan te~ bel|le~ * ra|
 B4 z2 G2 :|2 B4 z2 =A2 || =A4 B2 c2- | c2 B2 B4 | =A4 z2 B2 | c4 A4 | A6 A2 | G4 c2 c2 |: %59
w: son,~ Se~|son,~ Pe|trar cha~ mi~|* non~ sa|per,~ ne~|fon te~|d'He li|con.~ Don,~ don,~|
 c4 BABA | F2 A4 G2 |1 A4 c2 c2 :|2 A4 z2 F2 |: F6 F2 | G2 A2 A4 | A8 | z2 B2 A2 A2 | F4 G4 |1 %68
w: don,~ di ri,~ di ri,~|don,~ don,~ don,~|don,~ Don,~ don,~|don,~ Se~|ti~ mi~|fol ler~ be|ne~|mi~ non~ es|ser~ pol|
 A4 z2 F2 :|2 A4 z2 F2 || _G2 F2 G2 F2 | B4 =A4 | z2 B2 d4 | z2 d2 f4 | e2 e4 =d2 | e4 c2 c2 |: %76
w: tron,~ Se~|tron,~ Mi~|fic car~ tut ta~|not te,~|ur tar,~|ur tar~|co me~ mon|ton.~ Don,~ don,~|
 c4 BABA | F2 A4 G2 |1 A4 c2 c2 :|2 A4 F4 || E4 F4 | E4 F4 | E8 |] %83
w: don,~ di ri,~ di ri,~|don,~ don,~ don,~|don,~ Don,~ don,~|don,~ don,~|don,~ don,~|don,~ don,~|don.~|
V:2
|: E4 E2 E2 | _G4 E4 | E4 E4 | F4 B2 G2 | F4 E4 |1 E8 :|2 E4 z2 A2 || A2 A2 A2 G2 | F4 F2 F2- | %9
w: Ma to na,~|mi a~|ca ra,~|mi~ fol le|re~ can|zon,~|zon,~ can|tar~ sot to~ fi|ne stra,~ Lan|
 F2 G2 A2 G2 | B8 | G4 A2 A2 |: A4 GFEE | D2 F2 E4 |1 E4 A2 A2 :|2 C4 z2 E2 |: E2 E2 F2 E2 | %17
w: * tze~ buon~ com|pa|gnon~ Don,~ don,~|don,~ di ri,~ di ri,~|don,~ don,~ don,~|don,~ Don,~ don,~|don,~ Ti~|pre go~ m'as col|
 =D4 E2 E2 | F4 _G4 | F4 E4 |1 F4 z2 E2 :|2 F4 z2 E2 || G2 G2 A2 A2 | F4 G4 | A4 E4 | F2 G2 F4 | %26
w: ta re,~ che~|mi~ can|tar~ de~|bon,~ Ti~|bon,~ E~|mi~ ti~ fol ler~|be ne~|co me~|gre co\_e~ ca|
 G4 A2 A2 |: A4 GFEE | D2 F2 E4 |1 E4 A2 A2 :|2 C4 z2 E2 |: F2 G2 A2 A2 | A4 A2 A2 | B4 z2 A2 | %34
w: pon.~ Don,~ don,~|don,~ di ri,~ di ri,~|don,~ don,~ don,~|don,~ Don,~ don,~|don,~ Co|m'an dar~ a~ le~|caz ze,~ caz|zar,~ caz|
 B4 A4- | A2 F4 G2 |1 A4 z2 E2 :|2 A4 z2 E2 || F2 D2 E2 F2 | _G4 F4 | A4 A2 G2 | c4 B4 | %42
w: zar~ con~|* le~ fal|con,~ Co|con,~ Mi~|ti~ por~ tar~ bec|caz ze~|gras se~ co|me ro|
 G4 A2 A2 |: A4 GFEE | D2 F2 E4 |1 E4 A2 A2 :|2 C4 z2 E2 |: E2 F2 _G2 F2 | A4 A4 | A4 A2 A2- | %50
w: gnon,~ Don,~ don,~|don,~ di ri,~ di ri,~|don,~ don,~ don,~|don,~ Don,~ don,~|don,~ Se~|mi~ non~ sa per~|di re~|tan te~ bel|
 A2 G2 F4 |1 =D4 z2 E2 :|2 =D4 z2 F2 || F4 G2 A2- | A2 F2 E4 | F4 G4- | G2 A2 F4 | E4 =D4 | %58
w: * le~ ra|son,~ Se~|son,~ Pe|trar cha~ mi~|* non~ sa|per,~ ne~|* fon te~|d'He li|
 E4 A2 A2 |: A4 GFEE | D2 F2 E4 |1 E4 A2 A2 :|2 C4 z2 D2 |: D6 C2 | E2 F2 E4 | F6 F2 | B,4 C4 | %67
w: con.~ Don,~ don,~|don,~ di ri,~ di ri,~|don,~ don,~ don,~|don,~ Don,~ don,~|don,~ Se~|ti~ mi~|fol ler~ be|ne~ mi~|non~ es|
 =D4 E4 |1 E4 z2 D2 :|2 E4 z2 D2 || D2 D2 D4 | D2 E2 F2 F2 | _G4 z2 F2 | B4 z2 A2 | c2 c2 B2 B2 | %75
w: ser~ pol|tron,~ Se~|tron,~ Mi~|fic car~ tut|ta~ not te,~ ur|tar,~ ur|tar,~ ur|tar,~ co me~ mon|
 G4 A2 A2 |: A4 GFEE | D2 F2 E4 |1 E4 A2 A2 :|2 C4 D4 || C4 D4 | C4 D4 | C8 |] %83
w: ton.~ Don,~ don,~|don,~ di ri,~ di ri,~|don,~ don,~ don,~|don,~ Don,~ don,~|don,~ don,~|don,~ don,~|don,~ don,~|don.~|
V:3
|: c4 c2 c2 | d4 c4 | B4 B4 | d4 f2 e2 | d4 B4 |1 c8 :|2 c4 z2 e2 || f2 f2 e2 e2 | c4 c4 | =d4 e4 | %10
w: Ma to na,~|mi a~|ca ra,~|mi~ fol le|re~ can|zon,~|zon,~ can|tar~ sot to~ fi|ne stra,~|Lan tze~|
 f2 _g2 f4 | e4 e2 e2 |: e4 ecBc | A2 d2 c2 B2 |1 c4 e2 e2 :|2 A4 z2 B2 |: B2 B2 d2 B2 | B4 B2 B2 | %18
w: buon~ com pa|gnon,~ Don,~ don,~|don,~ di ri,~ di ri,~|don,~ don,~ don,~ don,~|don,~ Don,~ don,~|don,~ Ti~|pre go~ m'as col|ta re,~ che~|
 d4 d4 | d4 c4 |1 d4 z2 B2 :|2 d4 z2 c2 || e2 e2 e2 e2 | =d4 e2 e2- | e2 e2 c4 | =d2 e4 d2 | %26
w: mi~ can|tar~ de~|bon,~ Ti~|bon,~ E~|mi~ ti~ fol ler~|be ne~ co|* me~ gre|co~ e~ ca|
 e4 e2 e2 |: e4 ecBc | A2 d2 c2 B2 |1 c4 e2 e2 :|2 A4 z2 c2 |: c2 e2 e2 f2 | e4 e4 | z2 _g2 e4 | %34
w: pon.~ Don,~ don,~|don,~ di ri,~ di ri,~|don,~ don,~ don,~ don,~|don,~ Don,~ don,~|don,~ Co|m'an dar~ a~ le~|caz ze,~|caz zar,~|
 z2 _g2 e2 e2 | f4 d4 |1 e4 z2 c2 :|2 e4 z2 c2 || d2 B2 A2 d2 | _G4 d4 | e4 e2 e2 | a4 f4 | %42
w: caz zar~ con~|le~ fal|con,~ Co|con,~ Mi~|ti~ por~ tar~ bec|caz ze~|gras se~ co|me ro|
 e4 e2 e2 |: e4 ecBc | A2 d2 c2 B2 |1 c4 e2 e2 :|2 A4 z2 B2 |: c2 c2 d2 d2 | e4 e4 | d4 e2 f2 | %50
w: gnon,~ Don,~ don,~|don,~ di ri,~ di ri,~|don,~ don,~ don,~ don,~|don,~ Don,~ don,~|don,~ Se~|mi~ non~ sa per~|di re~|tan te~ bel|
 e4 c4 |1 B4 z2 B2 :|2 B4 z2 c2 || c4 e2 e2- | e2 d2 B4 | c4 e4 | e4 d4 | c4 A4 | B4 e2 e2 |: %59
w: le~ ra|son,~ Se~|son,~ Pe|trar cha~ mi~|* non~ sa|per,~ ne~|fon te~|d'He li|con.~ Don,~ don,~|
 e4 ecBc | A2 d2 c2 B2 |1 c4 e2 e2 :|2 A4 z2 A2 |: A4 A2 A2 | B2 d4 c2 | d6 c2 | e6 f2- | %67
w: don,~ di ri,~ di ri,~|don,~ don,~ don,~ don,~|don,~ Don,~ don,~|don,~ Se~|ti~ mi~ fol|ler~ be *|ne~ mi~|non~ es|
 f2 B4 B2 |1 c4 z2 A2 :|2 c4 z2 A2 || B2 A2 B2 A2 | B4 c2 c2 | e4 z2 d2 | _g4 z2 d2 | a2 a2 g2 f2 | %75
w: * ser~ pol|tron,~ Se~|tron,~ Mi~|fic car~ tut ta~|not te,~ ur|tar,~ ur|tar,~ ur|tar,~ co me~ mon|
 e4 e2 e2 |: e4 ecBc | A2 d2 c2 B2 |1 c4 e2 e2 :|2 A8 || A8 | A8 | A8 |] %83
w: ton.~ Don,~ don,~|don,~ di ri,~ di ri,~|don,~ don,~ don,~ don,~|don,~ Don,~ don,~|don,~|don,~|don,~|don,~|
V:4
|: A,4 A,2 A,2 | _G,4 A,4 | E,4 E,4 | D,4 B,,2 C,2 | D,4 E,4 |1 A,,8 :|2 A,,4 z2 A,2 || %7
w: Ma to na,~|mi a~|ca ra,~|mi~ fol le|re~ can|zon,~|zon,~ can|
 D,2 D,2 A,2 E,2 | F,4 F,4 | B,4 A,2 C2 | B,4 B,4 | E,4 A,2 A,2 |: A,4 E,F,G,A, | D,4 E,4 |1 %14
w: tar~ sot to~ fi|ne stra,~|Lan tze~ buon~|com pa|gnon,~ Don,~ don,~|don,~ di ri,~ di ri,~|don,~ don,~|
 A,,4 A,2 A,2 :|2 A,,4 z2 E,2 |: E,2 E,2 D,2 E,2 | B,,4 E,4 | z2 D,2 _G,2 G,2 | D,4 A,4 |1 %20
w: don,~ Don,~ don,~|don,~ Ti~|pre go~ m'as col|ta re,~|che~ mi~ can|tar~ de~|
 D,4 z2 E,2 :|2 D,4 z2 A,2 || E,2 E,2 A,2 A,2 | B,4 E,4 | A,4 A,2 C2 | B,4 B,4 | E,4 A,2 A,2 |: %27
w: bon,~ Ti~|bon,~ E~|mi~ ti~ fol ler~|be ne~|co me~ gre|co\_e~ ca|pon.~ Don,~ don,~|
 A,4 E,F,G,A, | D,4 E,4 |1 A,,4 A,2 A,2 :|2 A,,4 z2 A,2 |: F,2 E,2 A,2 D,2 | A,4 A,4 | %33
w: don,~ di ri,~ di ri,~|don,~ don,~|don,~ Don,~ don,~|don,~ Co|m'an dar~ a~ le~|caz ze,~|
 z2 _G,2 A,4 | z2 _G,2 A,2 A,2 | D4 B,4 |1 A,4 z2 A,2 :|2 A,8 || z8 | z8 | A,4 A,2 C2 | A,4 B,4 | %42
w: caz zar,~|caz zar~ con~|le~ fal|con,~ Co|con,~|||gras se~ co|me ro|
 E,4 A,2 A,2 |: A,4 E,F,G,A, | D,4 E,4 |1 A,,4 A,2 A,2 :|2 A,,4 z2 E,2 |: A,2 A,2 _G,2 B,2 | %48
w: gnon,~ Don,~ don,~|don,~ di ri,~ di ri,~|don,~ don,~|don,~ Don,~ don,~|don,~ Se~|mi~ non~ sa per~|
 A,4 A,4 | D,4 C,2 D,2 | E,4 F,4 |1 B,,4 z2 E,2 :|2 B,,4 z2 F,2 || F,4 E,2 A,2- | A,2 B,2 _G,4 | %55
w: di re~|tan te~ bel|le~ ra|son,~ Se~|son,~ Pe|trar cha~ mi~|* non~ sa|
 F,4 E,4 | C,4 D,4 | A,4 F,4 | E,4 A,2 A,2 |: A,4 E,F,G,A, | D,4 E,4 |1 A,,4 A,2 A,2 :|2 %62
w: per,~ ne~|fon te~|d'He li|con.~ Don,~ don,~|don,~ di ri,~ di ri,~|don,~ don,~|don,~ Don,~ don,~|
 A,,4 z2 D,2 |: D,4 F,4 | E,2 D,2 A,4 | D,4 F,4 | G,4 A,4 | B,4 E,4 |1 A,4 z2 D,2 :|2 A,4 z2 D,2 || %70
w: don,~ Se~|ti~ mi~|fol ler~ be|ne~ mi~|non~ es|ser~ pol|tron,~ Se~|tron,~ Mi~|
 _G,2 D,2 G,2 D,2 | _G,4 F,4 | z2 E,2 B,4 | z2 _G,2 D4 | A,4 B,2 B,2 | E,4 A,2 A,2 |: %76
w: fic car~ tut ta~|not te,~|ur tar,~|ur tar~|co me~ mon|ton.~ Don,~ don,~|
 A,4 E,F,G,A, | D,4 E,4 |1 %78
w: don,~ di ri,~ di ri,~|don,~ don,~|
"_Ma chère dame, moi vouloir chanter chanson \nChanter sous fenêtre \"Lancier bon compagnon\". \nJe te prie m'écouter, car moi chanter très bon, \nEt moi aimer toi, comme Grec aime chapon. \nQuand aller à la chasse chasser avec les faucons, \nMoi t'apporter bécasses grasses comme rognons. \nSi moi pas savoir dire beaucoup belles raisons, \nMoi pas connaitre Pétrarque ni fontaine d'Hélicon, \nMais si toi m'aimer, moi pas être poltron, \nMoi baiser toute la nuit et jouer saute mouton." A,,4 A,2 A,2 :|2 %79
w: don,~ Don,~ don,~|
 A,,4 D,2 D,2 || A,,4 D,E,F,G, | A,2 A,,2 D,4 | A,,8 |] %83
w: don,~ don,~ don,~|don,~ di ri,~ di ri,~|don,~ don,~ don,~|don.~|

